X:141
T:Green Dance. THO5.141, The
M:C|
L:1/8
B:Thompson's Complete Collection of 200 Favourite Dances Vol.5
F:https://www.libraryofdance.org/manuals/1780c-Thompson-Compleat-5.pdf
Z:vmp. Peter Dunk 2024
Q:1/4=120
K:G
ddBG A/B/c/A/ BG|DGEG A/B/c/B/ A2|ddBG A/B/c/A/ BG|g>ef>d A^c d2:|
|:D/E/F/E/ Dd BdcA|D/E/F/E/ Dd cB A2|ddBG A/B/c/A/ BG|DGEG|A/G/A/B/ G2:|
W:
W:The 1st Gent turn the 2nd Lady ./.
W:the 1st Ladt turn the 2nd Gent ./:
W:Cross over one Couple :/.
W:Right and Left :/:

